app/dist/common/images/monadelphous.svg

<svg height="18" viewBox="0 0 18 18" width="18" xmlns="http://www.w3.org/2000/svg"><path d="m0 0h18v18h-18z" fill="#f0f3fa"/><path d="m7.31 5h2.27c.53 0 .92.49.92.95v7.05h-3v-6h-3.5v-1.29c0-.39.35-.71.79-.71h2.51zm3.67 0v8h3.02v-7.29c0-.39-.35-.71-.79-.71zm-6.98 2.5v5.5h3v-5.5z" fill="#e31f3a"/></svg>

<!-- by TradingView --><svg width="18" height="18" viewBox="0 0 18 18" xmlns="http://www.w3.org/2000/svg"><path fill="#F0F3FA" d="M0 0h18v18H0z"/><path d="M7.31 5h2.27c.53 0 .92.49.92.95V13h-3V7H4V5.71c0-.39.35-.71.79-.71H7.3Zm3.67 0v8H14V5.71c0-.39-.35-.71-.79-.71h-2.23ZM4 7.5V13h3V7.5H4Z" fill="#E31F3A"/></svg>
